X:51
T:The Glen of Aherlow                                                                               
M:4/4                                                                                               
N:Sean Ryan                                                                                         
L:1/8                                                                                               
K:EDor                                                                                              
B2 AF BFAF|E3 F ED[FB,]D|B2 AF BFAF|DFAF FE E2|                                                     
B2 AF BFAF|E3 F ED[FB,][EA,]|[FB,]EEF DEFA|dBAF FE E2|                                              
B2 AF BFAF|EEEF ED[FB,]D|B2 AF BFAF|DFAF FEEd|                                                      
ABAF BFAF|EGFD ED[FB,][EA,]|[FB,]EEE DEFA|B/c/d AF FE E2 ||                                         
eBBd efge|fdcd Adfd|eBBd egfe|dBAF FE E2|                                                           
eB B/A/B efge|fdcd Adfd|B3 d egfe|dBAF FE E2|                                                       
eBBB efge|fddd Adfd|eBBB egfe|dBAF FE E2|                                                           
eBBB efge|fddd Adfd|B_B=Bd e/f/g fe|dBAF FE E2 |>|
